X:32
T:Yankee Doodle Stick Dance
M:4/4
S:Binghamton MM
A:Bampton
O:English
R:Jig
P:A(AB)3CD
K:D
P:A
ddef df e2 | ddef d2 c2 | ddef gfed | cABc d2 d2 |]
P:B
B>cBA Bc d2 | A>BAG F2 A2 | B>cBA BcdB | Adce d2 d2 :|
P:C
